localPackages/DesignSystem/Sources/DesignSystem/Resources/Assets.xcassets/IconSet/ic-arrows-cross.imageset/ic-arrows-cross.svg

<svg width="24" height="24" viewBox="0 0 24 24" fill="none" xmlns="http://www.w3.org/2000/svg">
<g id="ic-arrows-cross">
<path id="Icon" d="M14.696 5.88242L12.7555 3.94197V11.2559H20.0688L18.1284 9.31542C17.8355 9.02253 17.8355 8.54766 18.1284 8.25477C18.4213 7.96188 18.8961 7.96188 19.189 8.25477L22.1977 11.2634C22.6078 11.6734 22.6078 12.3383 22.1977 12.7483L19.189 15.7569C18.8961 16.0498 18.4213 16.0498 18.1284 15.7569C17.8355 15.464 17.8355 14.9892 18.1284 14.6963L20.0688 12.7559H12.7555V20.0697L14.696 18.1293C14.9888 17.8364 15.4637 17.8364 15.7566 18.1293C16.0495 18.4222 16.0495 18.897 15.7566 19.1899L12.7479 22.1986C12.3379 22.6086 11.673 22.6086 11.263 22.1986L8.25427 19.1899C7.96138 18.897 7.96138 18.4222 8.25427 18.1293C8.54717 17.8364 9.02205 17.8364 9.31495 18.1293L11.2555 20.0697V12.7559H3.94205L5.88253 14.6963C6.17543 14.9892 6.17543 15.464 5.88253 15.7569C5.58964 16.0498 5.11476 16.0498 4.82186 15.7569L1.81316 12.7483C1.4031 12.3383 1.4031 11.6734 1.81316 11.2634L4.82186 8.25477C5.11476 7.96188 5.58964 7.96188 5.88253 8.25477C6.17543 8.54766 6.17543 9.02253 5.88253 9.31542L3.94205 11.2559H11.2555V3.94197L9.31495 5.88242C9.02205 6.17531 8.54717 6.17531 8.25427 5.88242C7.96138 5.58953 7.96138 5.11467 8.25427 4.82178L11.263 1.81315C11.673 1.4031 12.3379 1.4031 12.7479 1.81315L15.7566 4.82178C16.0495 5.11467 16.0495 5.58953 15.7566 5.88242C15.4637 6.17531 14.9888 6.17531 14.696 5.88242Z" fill="#0F0F0F"/>
</g>
</svg>

<svg xmlns="http://www.w3.org/2000/svg" width="24" height="24" viewBox="0 0 24 24">
  <g class="ic-arrows-cross">
    <path d="m14.694 5.883-1.94-1.94v7.313h7.313l-1.94-1.94a.75.75 0 1 1 1.06-1.061l3.009 3.009c.41.41.41 1.075 0 1.485l-3.009 3.008a.75.75 0 1 1-1.06-1.06l1.94-1.94h-7.313v7.313l1.94-1.94a.75.75 0 0 1 1.06 1.06l-3.007 3.01a1.05 1.05 0 0 1-1.485 0l-3.009-3.01a.75.75 0 0 1 1.06-1.06l1.94 1.94v-7.314H3.94l1.94 1.94a.75.75 0 0 1-1.06 1.061L1.811 12.75a1.05 1.05 0 0 1 0-1.485l3.01-3.009a.75.75 0 0 1 1.06 1.06l-1.94 1.941h7.313V3.942l-1.94 1.94a.75.75 0 0 1-1.061-1.06l3.008-3.009a1.05 1.05 0 0 1 1.485 0l3.009 3.009a.75.75 0 1 1-1.06 1.06Z" class="Icon"/>
  </g>
</svg>
